X:1
T:Title
%%score ( 1 2 ) ( 3 4 )
L:1/8
Q:1/4=105
M:6/8
K:Bb
V:1 treble nm="Grand Piano, Soprano"
V:2 treble 
V:3 bass nm="Choir Pad, From the Cyber Hymnal™"
V:4 bass 
V:1
 [DF] [DF]2 [DF] [DF]2 | [DF]E-[EG] [EA] [DB]2 | [DB] [Fc]2 [F=B] [Ec]2 | [EF] [Fd]2- [Fd] [DB]2 | %4
w: By~Peter~Philip~Bilhorn * * *||||
 [DF] [DF]2 [DF] [DF]2 | [DF]E-[EG] [EA] [DB]2 | [FB] [Gc]2 [Gc] [Fd]2 | %7
w: |||
 [Ec] [DB]2- [DB]2- [DB]/ z/ | z [Ge]2- [Ge] [EG]2 | [Ge] [Fd]2- [Fd] [DF]2- | %10
w: |||
 [DF] [EA]2 [EA][EA][DB] | [Ec] [Fd]2- [Fd] [DB]2- | [DB] [Ge]2- [Ge] [EG]2 | %13
w: |||
 [Ge] [Fd]2- [Fd] [DF]2 | [Fd] [Ec]2 [=EB] [Fd]2 | [Ec] B2- [EB-] [DB]2- | [DB]6 |] %17
w: ||||
V:2
 x6 | z .F2 z3 | x6 | x6 | x6 | z .F2 z3 | x6 | x6 | x6 | x6 | x6 | x6 | x6 | x6 | x6 | z D2 z3 | %16
 x6 |] %17
V:3
 [B,,B,] [B,,B,]2 [B,,B,] [B,,B,]2 | z .A,2 z3 | [B,,B,] [F,A,]2 [F,_A,] [F,=A,]2 | %3
 [F,A,] [B,,B,]2- [B,,B,]2- [B,,B,]/ z/ | [B,,B,] [B,,B,]2 [B,,B,] [B,,B,]2 | z .A,2 z3 | %6
 [D,B,] [E,B,]2 [=E,B,] [F,B,]2 | [F,A,] [B,,B,]2- [B,,B,]2- [B,,B,]/ z/ | %8
 z [E,B,]2- [E,B,] [E,B,]2 | [E,B,] [B,,B,]2- [B,,B,] [B,,B,]2- | [B,,B,] [F,C]2 [F,C]CB, | %11
 [F,A,] [B,,B,]2- [B,,B,] [B,,B,]2- | [B,,B,] [E,B,]2- [E,B,] [E,B,]2 | %13
 [E,B,] [B,,B,]2- [B,,B,] [B,,B,]2 | [B,,B,] [F,A,]2 [G,C] [F,B,]2 | [F,A,] B,2 G, F,2- | F,6 |] %17
V:4
 x6 | [B,,B,]F,-[F,B,] [F,C] [B,,B,]2 | x6 | x6 | x6 | [B,,B,]F,-[F,B,] [F,C] [B,,B,]2 | x6 | x6 | %8
 x6 | x6 | z3 z F,2 | x6 | x6 | x6 | x6 | z B,,2- B,,3- | B,,6 |] %17

